!!!!SEGMENT: pl-wnifc--6432-n--007_nowakowski-jozef--anglez-no-7.krn
!!!cenid: 18xx:3930
!!!COM: Nowakowski, Józef
!!!COM-rismID: pe175316
!!!CDT: 1880/09/16-1865/08/27
!!!CNT: Polish
!!!OTL: Anglez No. 7
!!!PDT: 1825
!!!AGN:
!!!SMS-siglum: PL-Wnifc
!!!SMS-shelfmark: 6432/n
!!!SMS-shelfwork: 007 W
!!!SMS-variant:
!!!SMS-altvar:
!!!NIFC-rismSourceID: 1001134743
!!!NIFC-islandoraID: nifc:212700
!!!URL-pdf-islandora: https://repozytorium.nifc.pl/islandora/object/nifc%3A212700/datastream/PDF/view
!!!URL-scan: https://polish.musicsources.pl/pl/lokalizacje/galeria/druki-muzyczne/16851 @EN{Scan on Polish Music Sources Website} @PL{Skany w portalu Dziedzictwo Muzyki Polskiej w otwartym dostępie}
!!!ONB-nifc: UWAGA: w źródle 5 Mazurów (001-005), 4 Anglezy (006-009), 2 Walce (010-011) i Fantaisie Valse (012).
!!!AIN: 1 piano
!!!key: F
**kern	**kern	**dynam
*part1	*part1	*part1
*staff2	*staff1	*
*I"Piano-forté.	*I"Piano-forté.	*
*I'	*I'	*
*Ipiano	*Ipiano	*
*ICklav	*ICklav	*
*clefF4	*clefG2	*
*k[b-]	*k[b-]	*
*F:	*F:	*
*M2/4	*M2/4	*
=1	=1	=1
4FF/	8.aa\L	.
.	(16cc\K	.
4c 4A 4F\	8.ff\)	.
.	(16gg\Jk	.
=2	=2	=2
4FF/	8.aa\L)	.
.	(16cc\K	.
4c 4A 4F\	8.ff\)	.
.	(16gg\Jk	.
=3	=3	=3
4FF/	8.aa\L)	.
.	(16cc\K	.
4c 4A 4F\	8.ff\)	.
.	(16gg\Jk	.
=4	=4	=4
4FF/	8.aa\L)	.
.	(16cc\K	.
4c 4A 4F\	8.bb-\)	.
.	(16aa\Jk	.
=5	=5	=5
4C/	8.gg\L)	.
.	(16cc\K	.
4e 4c 4B- 4G\	8.gg\)	.
.	(16aa\Jk	.
=6	=6	=6
4C/	8.bb-\L)	.
.	(16a\K	.
4e 4c 4B- 4G\	8.gg\)	.
.	(16aa\Jk	.
=7	=7	=7
4C/	8.bb-\L)	.
.	(16a\K	.
4e 4c 4B- 4G\	8.gg\)	.
.	(16aa\Jk	.
=8	=8	=8
4C/	8.bb-\L)	.
.	(16ddd\K	.
4c 4B- 4G\	8.ccc\)	.
.	(16bb-\Jk	.
=9:|!|:	=9:|!|:	=9:|!|:
4F\	8.aa\L)	.
.	(16cc\K	.
4c 4A\	8.ff\)	.
.	(16aa\Jk	.
=10	=10	=10
4E\	8.gg\L)	.
.	16a\K	.
4c#X 4A 4G\	8.aa\	.
.	(16gg\Jk	.
=11	=11	=11
!	!LO:TX:b:Bi:t=cres.cen.do:problem:dynamics with extension lines	!LO:HP:t=cres.cen.do
4F\	8.ff\L)	<
.	16a\K	.
4d 4A 4F\	8.dd\	.
.	(16ff\Jk	.
=12	=12	=12
4C/	8.ee\L)	.
.	16a\K	.
4e 4A\	8.ff\	.
.	16ee\Jk	.
=13	=13	=13
4BB-/	8.dd\L	[
.	16f\K	.
4d 4B- 4F\	8.b-\	.
.	16dd\Jk	.
=14	=14	=14
4C/	8.cc\L	.
.	16f\K	.
4c 4A 4F\	8.a\	.
.	(16ff\Jk	.
=15	=15	=15
4C/	8.ee\L)	>
.	16g\K	.
4c 4B- 4G\	8.cc\	.
.	16ee\Jk	.
=16	=16	=16
4c 4A 4F\	8.ff\L	.
.	16cc\K	.
4r	8.ff\	.
.	16gg\Jk	]]
==:|!	==:|!	==:|!
*-	*-	*-
!!!system-decoration: {(*)}
!!!ENC: Berenika Jozajtis
!!!END: 2022-07-27
!!!ENC: Andrzej Kubiczek
!!!END: 2022-08-24
